SVG_Azure_All/Visual Studio.svg

<?xml version="1.0" encoding="UTF-8" standalone="no"?>
<!-- Generated by Microsoft Visio, SVG Export Visual Studio.svg Page-1 -->

<svg
   xmlns:dc="http://purl.org/dc/elements/1.1/"
   xmlns:cc="http://creativecommons.org/ns#"
   xmlns:rdf="http://www.w3.org/1999/02/22-rdf-syntax-ns#"
   xmlns:svg="http://www.w3.org/2000/svg"
   xmlns="http://www.w3.org/2000/svg"
   xmlns:sodipodi="http://sodipodi.sourceforge.net/DTD/sodipodi-0.dtd"
   xmlns:inkscape="http://www.inkscape.org/namespaces/inkscape"
   width="0.78429979in"
   height="0.77089834in"
   viewBox="0 0 56.469583 55.504818"
   xml:space="preserve"
   class="st5"
   version="1.1"
   id="svg77"
   sodipodi:docname="Visual Studio.svg"
   style="font-size:12px;overflow:visible;color-interpolation-filters:sRGB;fill:none;fill-rule:evenodd;stroke-linecap:square;stroke-miterlimit:3"
   inkscape:version="0.92.5 (2060ec1f9f, 2020-04-08)"><metadata
   id="metadata81"><rdf:RDF><cc:Work
       rdf:about=""><dc:format>image/svg+xml</dc:format><dc:type
         rdf:resource="http://purl.org/dc/dcmitype/StillImage" /></cc:Work></rdf:RDF></metadata><sodipodi:namedview
   pagecolor="#ffffff"
   bordercolor="#666666"
   borderopacity="1"
   objecttolerance="10"
   gridtolerance="10"
   guidetolerance="10"
   inkscape:pageopacity="0"
   inkscape:pageshadow="2"
   inkscape:window-width="640"
   inkscape:window-height="480"
   id="namedview79"
   showgrid="false"
   inkscape:zoom="1.8365233"
   inkscape:cx="37.795184"
   inkscape:cy="18.524069"
   inkscape:window-x="0"
   inkscape:window-y="0"
   inkscape:window-maximized="0"
   inkscape:current-layer="svg77" />
	<style
   type="text/css"
   id="style2">
	<![CDATA[
		.st1 {fill:url(#grad0-7);stroke:none;stroke-linecap:butt;stroke-width:0.750002}
		.st2 {fill:url(#grad0-12);stroke:none;stroke-linecap:butt;stroke-width:0.750002}
		.st3 {fill:url(#grad0-17);stroke:none;stroke-linecap:butt;stroke-width:0.750002}
		.st4 {fill:url(#grad0-22);stroke:none;stroke-linecap:butt;stroke-width:1.84939}
		.st5 {fill:none;fill-rule:evenodd;font-size:12px;overflow:visible;stroke-linecap:square;stroke-miterlimit:3}
	]]>
	</style>

	<defs
   id="Patterns_And_Gradients">
		<linearGradient
   id="grad0-7"
   x1="0"
   y1="51.456089"
   x2="43.272069"
   y2="51.456089"
   gradientTransform="scale(0.98331328,1.0169699)"
   gradientUnits="userSpaceOnUse">
			<stop
   offset="0"
   stop-color="#803dbd"
   stop-opacity="1"
   id="stop4" />
			<stop
   offset="0.17"
   stop-color="#7235b3"
   stop-opacity="1"
   id="stop6" />
			<stop
   offset="0.33"
   stop-color="#6930a7"
   stop-opacity="1"
   id="stop8" />
			<stop
   offset="0.57"
   stop-color="#6c32ab"
   stop-opacity="1"
   id="stop10" />
			<stop
   offset="0.78"
   stop-color="#803dbd"
   stop-opacity="1"
   id="stop12" />
			<stop
   offset="1"
   stop-color="#7235b3"
   stop-opacity="1"
   id="stop14" />
		</linearGradient>
		<linearGradient
   id="grad0-12"
   x1="0"
   y1="34.715059"
   x2="14.115037"
   y2="34.715059"
   gradientTransform="scale(0.50938585,1.9631484)"
   gradientUnits="userSpaceOnUse">
			<stop
   offset="0"
   stop-color="#5d249a"
   stop-opacity="1"
   id="stop17" />
			<stop
   offset="1"
   stop-color="#5d249a"
   stop-opacity="1"
   id="stop19" />
		</linearGradient>
		<linearGradient
   id="grad0-17"
   x1="0"
   y1="51.220523"
   x2="43.311447"
   y2="51.220523"
   gradientTransform="scale(0.98439666,1.0158507)"
   gradientUnits="userSpaceOnUse">
			<stop
   offset="0.09"
   stop-color="#9d5bd2"
   stop-opacity="1"
   id="stop22" />
			<stop
   offset="0.94"
   stop-color="#783cbb"
   stop-opacity="1"
   id="stop24" />
			<stop
   offset="1"
   stop-color="#783cbb"
   stop-opacity="1"
   id="stop26" />
		</linearGradient>
		<linearGradient
   id="grad0-22"
   x1="0"
   y1="22.65264"
   x2="30.970278"
   y2="22.65264"
   gradientTransform="scale(0.55797456,1.7921964)"
   gradientUnits="userSpaceOnUse">
			<stop
   offset="0"
   stop-color="#c396f4"
   stop-opacity="1"
   id="stop29" />
			<stop
   offset="1"
   stop-color="#b27bf1"
   stop-opacity="1"
   id="stop31" />
		</linearGradient>
	</defs>
	<g
   id="g75"
   transform="translate(-5.6693772,-6.5772677)">
		<title
   id="title35">Page-1</title>
		<g
   id="group198-1"
   transform="translate(5.66929,-34.0157)">
			<title
   id="title37">Visual Studio</title>
			<g
   id="group199-2">
				<title
   id="title39">Page-1</title>
				<g
   id="group200-3"
   transform="translate(0.0142381,-11.3238)">
					<title
   id="title41">path863.30</title>
					<g
   id="shape201-4">
						<title
   id="title43">Sheet.201</title>
						<path
   d="m 40.61,52.33 c -0.79,-0.02 -1.35,0.39 -1.51,0.56 L 2.58,92.85 C 1.96,93.42 1.63,93.38 1.29,93.37 0.63,93.35 0,92.5 0,92.5 c 0.14,0.74 0.52,1.18 0.89,1.47 0.87,0.7 4.62,2.03 4.97,2.14 0.28,0.1 0.55,0.19 0.89,0.22 0.58,0.05 1.03,-0.24 1.35,-0.47 0.17,-0.13 34.41,-27.88 34.41,-27.88 l 0.04,-13.9 c -0.01,-0.41 -0.23,-0.8 -0.59,-1.15 -0.64,-0.58 -1.09,-0.58 -1.35,-0.6 z"
   class="st1"
   id="path45"
   inkscape:connector-curvature="0"
   style="fill:url(#grad0-7);stroke:none;stroke-width:0.75000203;stroke-linecap:butt" />
					</g>
				</g>
				<g
   id="group202-8"
   transform="translate(0,-13.6067)">
					<title
   id="title49">path882.31</title>
					<g
   id="shape203-9">
						<title
   id="title51">Sheet.203</title>
						<path
   d="m 0,69.59 0.01,25.19 c 0.53,1.6 2.02,0.99 2.21,0.85 0.66,-0.61 4.87,-5.35 4.87,-5.35 L 7.19,73.89 2.09,68.48 C 1.96,68.22 1.17,67.51 0,69.59 Z"
   class="st2"
   id="path53"
   inkscape:connector-curvature="0"
   style="fill:url(#grad0-12);stroke:none;stroke-width:0.75000203;stroke-linecap:butt" />
					</g>
				</g>
				<g
   id="group204-13">
					<title
   id="title57">path880-0.32</title>
					<g
   id="shape205-14">
						<title
   id="title59">Sheet.205</title>
						<path
   d="m 42,95.9 c -1.4,0.48 -2.31,-0.52 -2.31,-0.52 L 2.75,55.84 C 1.81,54.87 1.52,54.99 1.28,54.95 0.58,54.96 0.23,55.64 0,55.98 0.31,54.6 1.07,54.24 1.27,54.13 l 4.51,-1.92 c 0.88,-0.35 1.72,-0.11 1.96,0.1 l 34.78,28.12 0.03,13.96 c -0.03,0.39 0.44,1.16 -0.55,1.51 z"
   class="st3"
   id="path61"
   inkscape:connector-curvature="0"
   style="fill:url(#grad0-17);stroke:none;stroke-width:0.75000203;stroke-linecap:butt" />
					</g>
				</g>
				<g
   id="group206-18"
   transform="translate(39.1891,-0.00501172)">
					<title
   id="title65">path8-2.33</title>
					<g
   id="shape207-19">
						<title
   id="title67">Sheet.207</title>
						<path
   d="m 0.5,95.39 c 0.98,0.99 2.16,0.66 2.16,0.66 l 13.16,-6.4 c 1.68,-1.13 1.45,-2.54 1.45,-2.54 V 48.9 c 0,-1.68 -1.74,-2.26 -1.74,-2.26 L 4.12,41.21 C 1.63,39.69 0,41.48 0,41.48 c 0,0 2.1,-1.49 3.13,1.34 v 50.53 c 0,0.35 -0.08,0.69 -0.23,1 -0.3,0.59 -0.95,1.15 -2.51,0.92 z"
   class="st4"
   id="path69"
   inkscape:connector-curvature="0"
   style="fill:url(#grad0-22);stroke:none;stroke-width:1.84939003;stroke-linecap:butt" />
					</g>
				</g>
			</g>
		</g>
	</g>
</svg>

<?xml version="1.0" encoding="UTF-8" standalone="no"?>
<!DOCTYPE svg PUBLIC "-//W3C//DTD SVG 1.1//EN" "http://www.w3.org/Graphics/SVG/1.1/DTD/svg11.dtd">
<!-- Generated by Microsoft Visio, SVG Export Visual Studio.svg Page-1 -->
<svg xmlns="http://www.w3.org/2000/svg" xmlns:xlink="http://www.w3.org/1999/xlink" xmlns:ev="http://www.w3.org/2001/xml-events"
		width="0.944882in" height="1.33858in" viewBox="0 0 68.0315 96.378" xml:space="preserve" color-interpolation-filters="sRGB"
		class="st5">
	<style type="text/css">
	<![CDATA[
		.st1 {fill:url(#grad0-7);stroke:none;stroke-linecap:butt;stroke-width:0.750002}
		.st2 {fill:url(#grad0-12);stroke:none;stroke-linecap:butt;stroke-width:0.750002}
		.st3 {fill:url(#grad0-17);stroke:none;stroke-linecap:butt;stroke-width:0.750002}
		.st4 {fill:url(#grad0-22);stroke:none;stroke-linecap:butt;stroke-width:1.84939}
		.st5 {fill:none;fill-rule:evenodd;font-size:12px;overflow:visible;stroke-linecap:square;stroke-miterlimit:3}
	]]>
	</style>

	<defs id="Patterns_And_Gradients">
		<linearGradient id="grad0-7" x1="0" y1="0" x2="1" y2="0" gradientTransform="rotate(0 0.5 0.5)">
			<stop offset="0" stop-color="#803dbd" stop-opacity="1"/>
			<stop offset="0.17" stop-color="#7235b3" stop-opacity="1"/>
			<stop offset="0.33" stop-color="#6930a7" stop-opacity="1"/>
			<stop offset="0.57" stop-color="#6c32ab" stop-opacity="1"/>
			<stop offset="0.78" stop-color="#803dbd" stop-opacity="1"/>
			<stop offset="1" stop-color="#7235b3" stop-opacity="1"/>
		</linearGradient>
		<linearGradient id="grad0-12" x1="0" y1="0" x2="1" y2="0" gradientTransform="rotate(90 0.5 0.5)">
			<stop offset="0" stop-color="#5d249a" stop-opacity="1"/>
			<stop offset="1" stop-color="#5d249a" stop-opacity="1"/>
		</linearGradient>
		<linearGradient id="grad0-17" x1="0" y1="0" x2="1" y2="0" gradientTransform="rotate(0 0.5 0.5)">
			<stop offset="0.09" stop-color="#9d5bd2" stop-opacity="1"/>
			<stop offset="0.94" stop-color="#783cbb" stop-opacity="1"/>
			<stop offset="1" stop-color="#783cbb" stop-opacity="1"/>
		</linearGradient>
		<linearGradient id="grad0-22" x1="0" y1="0" x2="1" y2="0" gradientTransform="rotate(90 0.5 0.5)">
			<stop offset="0" stop-color="#c396f4" stop-opacity="1"/>
			<stop offset="1" stop-color="#b27bf1" stop-opacity="1"/>
		</linearGradient>
	</defs>
	<g>
		<title>Page-1</title>
		<g id="group198-1" transform="translate(5.66929,-34.0157)">
			<title>Visual Studio</title>
			<g id="group199-2">
				<title>Page-1</title>
				<g id="group200-3" transform="translate(0.0142381,-11.3238)">
					<title>path863.30</title>
					<g id="shape201-4">
						<title>Sheet.201</title>
						<path d="M40.61 52.33 C39.82 52.31 39.26 52.72 39.1 52.89 L2.58 92.85 C1.96 93.42 1.63 93.38 1.29 93.37 C0.63
									 93.35 0 92.5 0 92.5 C0.14 93.24 0.52 93.68 0.89 93.97 C1.76 94.67 5.51 96 5.86 96.11 C6.14 96.21
									 6.41 96.3 6.75 96.33 C7.33 96.38 7.78 96.09 8.1 95.86 C8.27 95.73 42.51 67.98 42.51 67.98 L42.55
									 54.08 C42.54 53.67 42.32 53.28 41.96 52.93 C41.32 52.35 40.87 52.35 40.61 52.33 Z" class="st1"/>
					</g>
				</g>
				<g id="group202-8" transform="translate(-5.64548E-14,-13.6067)">
					<title>path882.31</title>
					<g id="shape203-9">
						<title>Sheet.203</title>
						<path d="M0 69.59 L0.01 94.78 C0.54 96.38 2.03 95.77 2.22 95.63 C2.88 95.02 7.09 90.28 7.09 90.28 L7.19 73.89
									 L2.09 68.48 C1.96 68.22 1.17 67.51 0 69.59 Z" class="st2"/>
					</g>
				</g>
				<g id="group204-13">
					<title>path880-0.32</title>
					<g id="shape205-14">
						<title>Sheet.205</title>
						<path d="M42 95.9 C40.6 96.38 39.69 95.38 39.69 95.38 L2.75 55.84 C1.81 54.87 1.52 54.99 1.28 54.95 C0.58
									 54.96 0.23 55.64 0 55.98 C0.31 54.6 1.07 54.24 1.27 54.13 L5.78 52.21 C6.66 51.86 7.5 52.1 7.74
									 52.31 L42.52 80.43 L42.55 94.39 C42.52 94.78 42.99 95.55 42 95.9 Z" class="st3"/>
					</g>
				</g>
				<g id="group206-18" transform="translate(39.1891,-0.00501172)">
					<title>path8-2.33</title>
					<g id="shape207-19">
						<title>Sheet.207</title>
						<path d="M0.5 95.39 C1.48 96.38 2.66 96.05 2.66 96.05 L15.82 89.65 C17.5 88.52 17.27 87.11 17.27 87.11 L17.27
									 48.9 C17.27 47.22 15.53 46.64 15.53 46.64 L4.12 41.21 C1.63 39.69 0 41.48 0 41.48 C0 41.48 2.1
									 39.99 3.13 42.82 L3.13 93.35 C3.13 93.7 3.05 94.04 2.9 94.35 C2.6 94.94 1.95 95.5 0.39 95.27
									 L0.5 95.39 Z" class="st4"/>
					</g>
				</g>
			</g>
		</g>
	</g>
</svg>
